X:1
T:Title
%%score [ 1 2 3 4 ]
L:1/8
Q:1/4=120
M:2/2
K:Bb
V:1 treble nm="S."
V:2 treble nm="A."
V:3 treble-8 nm="T."
V:4 bass nm="B."
V:1
 F4 B4 | c4 dcBA | B4 A4 | z2 B2 c2 d2 | e2 c2 d2 d2 | z2 d2 c2 c2 | e2 e2 d4 | d2 B2 c3 B | %8
w: Puis- que|de vous * * *||je n'ai au-|tre vi- sa- ge,|Je m'en vais|rendre er- mite|en un dé- *|
 AG F4 f2- | fedc B2 c2- | c2 B4 A2 | B8 | F4 B4 | c4 dcBA | B4 A4 | z2 B2 c2 d2 | e2 c2 d4 | %17
w: |||sert|Pour pri-|er Dieu * * *||si un au-|tre vous sert|
 z2 d2 c2 c2 | e2 e2 d4 | d2 B2 c3 B | AG F4 f2- | fedc B2 c2- | c2 B4 A2 | B8 | B8 | B2 B2 A4 | %26
w: Qu'au- tant que|moi en votre|hon- neur soit *|* * * sa-|||ge.|A-|dieu a- mour,|
 e8 | d3 c B2 A2 | B4 A4 | G8 | F2 F2 F4 | G4 G2 F2 | E2 E2 D2 d2 | d2 d2 fedc | B2 e2 d3 c | %35
w: a-|dieu gen- til corps|sa- ge.|A-|dieu ce teint,|a- dieu ces|ri- ants yeux, Je|n'ai pas eu * * *|* de vous grand|
 B2 A2 G4- | G4 F4- | F4 F4- | F4 B4 | c4 d3 c/B/ | A4 z2 F2 | G2 G2 A2 F2 | G2 F4 =E2 | F8 | %44
w: a- van- ta|* ge,|* Un|* moins|ai- mant * *|* au-|ra peut- ê- tre||mieux,|
 z2 B2 c2 B2 | B2 A2 B4- | B4 F4 | B4 c4 | d3 c/B/ A4 | z2 F2 G2 G2 | A2 F2 G2 F2- | F2 =E2 F4- | %52
w: au- ra peut-|ê- tre mieux.|* Un|moins ai-|mant * * *|au- ra peut-|ê- tre * *|* * mieux,|
 F4 z2 B2 | c2 B2 B2 A2 | B8- | B8- | B8 |] %57
w: * au-|ra peut- ê- tre|mieux.|||
V:2
 D4 F4 | E4 D2 F2 | F2 G2 F2 F2 | B,4 E2 F2 | G2 FE D4 | z2 A2 A2 A2 | G2 G2 F4 | F2 G4 F2- | %8
w: Puis- que|de vous je|n'ai au- tre vi-|sa- * *|* * * ge,|Je m'en vais|rendre er- mite|en un *|
 F2 F2- FEDC | B,4 D2 G2- | GFDE F4 | D8 | D4 F4 | E4 D2 F2 | F2 G2 F2 F2 | B,4 E2 F2 | G2 FE D4 | %17
w: * dé- * * * *|||sert|Pour pri-|er Dieu si|un au- tre vous|sert * *||
 z2 A2 A2 A2 | G2 G2 F4 | F2 G4 F2- | F2 F2- FEDC | B,4 D2 G2- | GFDE F4 | D8 | G8 | F2 G2 F4 | %26
w: Qu'au- tant que|moi en votre|hon- neur soit|* sa- * * * *|||ge.|A-|dieu a- mour,|
 B8 | B3 A G2 F2- | F2 E2 F4 | E8 | C2 C2 D4 | E4 B,2 B,2 | C2 C2 F,2 F2 | F2 F2 D2 F2 | G4 F2 D2 | %35
w: a-|dieu gen- til corps|* sa- ge.|A-|dieu ce teint,|a- dieu ces|ri- ants yeux, Je|n'ai pas eu de|vous grand *|
 E2 C2 B,4 | E4 D2 CB, | C8 | D4 F4 | E4 DCDE | FG F2- FEDC | B,2 B,2 C2 C2 | D4 C4 | A,2 B,4 G,2 | %44
w: a- van- ta||ge,|Un moins|ai- mant * * *||* au- ra peut-|ê- tre|mieux, au- *|
 B,2 F2 G4 | F4 D2 E2 | F4 D4 | F4 E4 | DCDE FG F2- | FEDC B,2 B,2 | C2 C2 D4 | C4 A,2 B,2- | %52
w: ra peut- ê-|tre * *|mieux. Un|moins ai-|mant * * * * * *|* * * * * au-|ra peut- ê-|tre mieux, au-|
 B,2 A,2 B,2 F2 | G4 F4 | D2 E2 F4 | G6 FE | F8 |] %57
w: * * ra peut-|ê- tre|mieux, peut- ê-|tre * *|mieux.|
V:3
 F6 B2- | B2 A2 B2 d2 | d2 e2 cBcd | e2 d2 c2 B2- | .B2 A2 B4 | f4 f2 f2 | B2 c2 A2 A2 | B2 G4 A2 | %8
w: Puis- que|* de vous je|n'ai au- tre * * *|* * vi- sa-|* * ge,|Je m'en vais|rendre er- mite en|un dé- *|
 F4 f3 e | dc B4 e2- | edcB c4 | B4 z4 | F6 B2 | B2 A2 B2 d2 | d2 e2 cBcd | e2 d2 c2 B2- | %16
w: sert, en *|* * un dé-||sert,|Pour pri-|er Dieu si un|au- tre * * * *|* * * vous|
 B2 A2 B4 | f4 f2 f2 | B2 c2 A2 A2 | B2 G4 A2 | F4 f3 e | dc B4 e2- | edcB c4 | B4 z4 | e8 | %25
w: * * sert|Qu'au- tant que|moi en votre hon-|neur soit sa-|ge, soit *|* * * sa-||ge.|A-|
 d2 e2 c4 | g8 | f2 d2 e2 c2- | c2 B2 c4 | c8 | A2 A2 B4 | B4 G2 B2 | B2 A2 B4 | z2 A2 B2 A2 | %34
w: dieu a- mour,|a-|dieu gen- til corps|* sa- ge.|A-|dieu ce teint,|a- dieu ces|ri- ants yeux,|Je n'ai pas|
 GABc de f2 | B2 f2 e2 d2 | c2 B4 AG | A8 | B4 F2 B2- | B2 A2 B2 B2 | c2 c2 d2 f2- | f2 =e2 f2 F2 | %42
w: eu * * * * * *|de vous grand a-|van- ta * *|ge,|Un moins ai-|* * mant au-|ra peut- ê- *|* tre mieux, au-|
 B3 A G2 G2 | F2 B2 c2 c2 | d2 B2 e3 d | c4 B4- | B4 B4 | F2 B4 A2 | B2 B2 c2 c2 | d2 f4 =e2 | %50
w: ra * * peut-|ê- tre mieux, au-|ra peut- ê- *|tre mieux.|* Un|moins ai- mant|au- ra peut- ê-|* * tre|
 f2 F2 B3 A | G2 G2 F2 B2 | c2 c2 d2 B2 | e3 d c4 | B2 e4 d2 | e6 dc | d8 |] %57
w: mieux, au- ra *|* peut- ê- tre|mieux, au- ra peut-|ê- * tre|mieux, peut- ê-|tre * *|mieux.|
V:4
 B,,8 | E,2 C,2 B,,4 | z2 E,2 F,2 F,2 | G,3 F, E,2 D,2 | C,4 B,,4 | z2 D,2 F,2 F,2 | %6
w: Puis-|que de vous|je n'ai au-|tre vi- sa- ge,|Je m'en|vais rendre er-|
 E,2 C,2 D,2 D,2 | B,,2 E,2 C,2 F,2- | F,E,D,C, B,,4 | B,3 A, G,F,E,D, | C,2 G,2 F,4 | B,,8 | %12
w: mite en un dé-|||||sert,|
 B,,8 | E,2 C,2 B,,4 | z2 E,2 F,2 F,2 | G,3 F, E,2 D,2 | C,4 B,,4 | z2 D,2 F,2 F,2 | %18
w: Pour|pri- er Dieu|si un au-|tre * * vous|* sert|Qu'au- tant que|
 E,2 C,2 D,2 D,2 | B,,2 E,2 C,2 F,2- | F,E,D,C, B,,4 | B,3 A, G,F,E,D, | C,2 G,2 F,4 | B,,8 | E,8 | %25
w: moi en votre hon-|neur soit sa- *||||ge.|A-|
 B,2 E,2 F,4 | E,8 | B,,2 B,,2 E,2 F,2 | G,4 F,4 | C,8 | F,2 F,2 B,,4 | E,4 E,2 D,2 | %32
w: dieu a- mour,|a-|dieu gen- til corps|sa- ge,|A-|dieu ce teint,|a- dieu ces|
 C,2 C,2 B,,4 | z2 D,2 D,2 D,2 | E,F,G,A, B,2 B,,2 | E,2 F,2 G,4 | E,4 F,4 | F,8 | B,,8 | %39
w: ri- ants yeux,|Je n'ai pas|eu * * * * de|vous grand a-|van- ta-|ge,|Un|
 E,2 C,2 B,,4 | F,4 B,3 A, | G,2 G,2 F,4 | z2 B,,2 C,2 C,2 | D,2 B,,2 F,4 | B,,4 z2 E,2 | %45
w: moins ai- mant|au- ra peut-|ê- tre mieux,|au- ra peut-|ê- * tre|mieux, au-|
 F,2 F,2 G,2 E,2 | B,8 | B,,4 E,2 C,2 | B,,4 F,4 | B,3 A, G,2 G,2 | F,4 z2 B,,2 | %51
w: ra peut- ê- tre|mieux.|Un moins ai-|mant au-|ra peut- ê- tre|mieux, au-|
 C,2 C,2 D,2 B,,2 | F,4 B,,4 | z2 E,2 F,2 F,2 | G,2 E,2 B,4 | E,8 | B,,8 |] %57
w: ra peut- ê- *|tre mieux,|peut- ê- tre|mieux, peut- ê-|tre|mieux.|

